; HEADER_BLOCK_START
; generated by OrcaSlicer 2.3.0 on 2025-10-06 at 18:11:36
; total layer number: 200
;_GP_TOTAL_LAYER_NUMBER_PLACEHOLDER
; filament_density: 1.24
; filament_diameter: 1.75
; max_z_height: 40.00
; HEADER_BLOCK_END

; THUMBNAIL_BLOCK_START

;
; THUMBNAIL_BLOCK_END

; THUMBNAIL_BLOCK_START

;
; THUMBNAIL_BLOCK_END

; external perimeters extrusion width = 0.42mm
; perimeters extrusion width = 0.45mm
; infill extrusion width = 0.45mm
; solid infill extrusion width = 0.42mm
; top infill extrusion width = 0.42mm
; first layer extrusion width = 0.50mm

; external perimeters extrusion width = 0.42mm
; perimeters extrusion width = 0.45mm
; infill extrusion width = 0.45mm
; solid infill extrusion width = 0.42mm
; top infill extrusion width = 0.42mm
; first layer extrusion width = 0.50mm

; EXECUTABLE_BLOCK_START
EXCLUDE_OBJECT_DEFINE NAME=Top.stl_id_0_copy_0 CENTER=110,146 POLYGON=[[75,179],[75,113],[75.0501,112.555],[75.0682,112.482],[75.1981,112.132],[75.268,112],[75.4363,111.753],[75.5858,111.586],[75.753,111.436],[76,111.268],[76.1322,111.198],[76.4824,111.068],[76.555,111.05],[77,111],[143,111],[143.445,111.05],[143.518,111.068],[143.868,111.198],[144,111.268],[144.247,111.436],[144.414,111.586],[144.564,111.753],[144.732,112],[144.802,112.132],[144.932,112.482],[144.95,112.555],[145,113],[145,179],[144.95,179.445],[144.932,179.518],[144.802,179.868],[144.732,180],[144.564,180.247],[144.414,180.414],[144.247,180.564],[144,180.732],[143.868,180.802],[143.518,180.932],[143.445,180.95],[143,181],[77,181],[76.555,180.95],[76.4824,180.932],[76.1322,180.802],[76,180.732],[75.753,180.564],[75.5858,180.414],[75.4363,180.247],[75.268,180],[75.1981,179.868],[75.0682,179.518],[75.0501,179.445],[75,179]]
EXCLUDE_OBJECT_DEFINE NAME=Base.stl_id_1_copy_0 CENTER=110,74 POLYGON=[[75,41],[75.0501,40.555],[75.0682,40.4824],[75.1981,40.1322],[75.2679,40],[75.4363,39.753],[75.5858,39.5858],[75.753,39.4363],[76,39.2679],[76.1322,39.1981],[76.4824,39.0681],[76.555,39.0501],[77,39],[143,39],[143.445,39.0501],[143.518,39.0681],[143.868,39.1981],[144,39.2679],[144.247,39.4363],[144.414,39.5858],[144.564,39.753],[144.732,40],[144.802,40.1322],[144.932,40.4824],[144.95,40.555],[145,41],[145,107],[144.95,107.445],[144.932,107.518],[144.802,107.868],[144.732,108],[144.564,108.247],[144.414,108.414],[144.247,108.564],[144,108.732],[143.868,108.802],[143.518,108.932],[143.445,108.95],[143,109],[77,109],[76.555,108.95],[76.4824,108.932],[76.1322,108.802],[76,108.732],[75.753,108.564],[75.5858,108.414],[75.4363,108.247],[75.2679,108],[75.1981,107.868],[75.0682,107.518],[75.0501,107.445],[75,107],[75,41]]
M73 P0 R84
M106 S0
M106 P2 S0
;TYPE:Custom
M140 S0
M104 S0 
START_PRINT EXTRUDER_TEMP=220 BED_TEMP=55
G90
G21
M83 ; use relative distances for extrusion
; Filament gcode
M106 S0
M106 P2 S0
;LAYER_CHANGE
;Z:0.2
;HEIGHT:0.2
;BEFORE_LAYER_CHANGE
;0.2
G92 E0

G1 E-.6 F2400
;_SET_FAN_SPEED_CHANGING_LAYER
SET_VELOCITY_LIMIT ACCEL=500 ACCEL_TO_DECEL=250
SET_VELOCITY_LIMIT SQUARE_CORNER_VELOCITY=9
EXCLUDE_OBJECT_START NAME=Top.stl_id_0_copy_0
G1 Z.4 F30000
G1 X77.725 Y113.727
G1 Z.4
G1 Z.2
G1 E.6 F2400
;TYPE:Inner wall
;WIDTH:0.499999
G1 F3600
G1 X142.273 Y113.727 E2.40418
G1 X142.275 Y178.273 E2.40412
G1 X77.727 Y178.273 E2.40418
G1 X77.725 Y113.767 E2.40263
G1 X77.268 Y113.27 F30000
G1 F3600
G1 X142.73 Y113.27 E2.43822
G1 X142.732 Y178.73 E2.43817
G1 X77.27 Y178.73 E2.43822
G1 X77.268 Y113.31 E2.43668
G1 X76.811 Y113.027 F30000
;TYPE:Outer wall
G1 F3600
G1 X76.908 Y112.862 E.00713
G1 X77.063 Y112.812 E.00606
G1 X143.045 Y112.812 E2.45757
G1 X143.147 Y112.923 E.0056
G1 X143.188 Y113.026 E.00413
G1 X143.189 Y178.973 E2.45626
G1 X143.092 Y179.138 E.00713
G1 X142.937 Y179.188 E.00606
G1 X76.952 Y179.188 E2.45769
G1 X76.875 Y179.11 E.00408
G1 X76.812 Y178.975 E.00553
G1 X76.811 Y113.067 E2.45481
;WIPE_START
G1 X76.908 Y112.862 E-.06808
M73 P0 R83
G1 X77.063 Y112.812 E-.04884
G1 X78.673 Y112.812 E-.48309
;WIPE_END
G1 Z.4 F30000
G1 X141.212 Y113.864 Z.4
G1 Z.2
G1 E.6 F2400
;TYPE:Bottom surface
;WIDTH:0.500003
G1 F6300
G1 X141.931 Y114.582 E.03784
G1 X141.931 Y115.228 E.02408
G1 X140.772 Y114.069 E.06105
G1 X140.125 Y114.069 E.02408
G1 X141.931 Y115.875 E.0951
G1 X141.931 Y116.521 E.02408
G1 X139.479 Y114.069 E.12915
G1 X138.832 Y114.069 E.02408
G1 X141.931 Y117.168 E.1632
G1 X141.931 Y117.814 E.02408
G1 X138.186 Y114.069 E.19725
G1 X137.539 Y114.069 E.02408
G1 X141.931 Y118.461 E.2313
G1 X141.931 Y119.107 E.02408
G1 X136.893 Y114.069 E.26535
G1 X136.247 Y114.069 E.02408
G1 X141.931 Y119.753 E.2994
G1 X141.931 Y120.4 E.02408
G1 X135.6 Y114.069 E.33346
G1 X134.954 Y114.069 E.02408
G1 X141.931 Y121.046 E.36751
G1 X141.931 Y121.693 E.02408
G1 X134.307 Y114.069 E.40156
G1 X133.661 Y114.069 E.02408
G1 X141.931 Y122.339 E.43561
G1 X141.931 Y122.986 E.02408
G1 X133.015 Y114.069 E.46966
G1 X132.368 Y114.069 E.02408
G1 X141.931 Y123.632 E.50371
G1 X141.931 Y124.278 E.02408
G1 X131.722 Y114.069 E.53776
G1 X131.075 Y114.069 E.02408
G1 X141.931 Y124.925 E.57181
G1 X141.931 Y125.571 E.02408
G1 X130.429 Y114.069 E.60586
G1 X129.783 Y114.069 E.02408
G1 X141.931 Y126.218 E.63991
G1 X141.931 Y126.864 E.02408
G1 X129.136 Y114.069 E.67396
G1 X128.49 Y114.069 E.02408
G1 X141.931 Y127.511 E.70801
G1 X141.931 Y128.157 E.02408
G1 X127.843 Y114.069 E.74206
G1 X127.197 Y114.069 E.02408
G1 X141.931 Y128.803 E.77611
G1 X141.931 Y129.45 E.02408
G1 X126.55 Y114.069 E.81016
G1 X125.904 Y114.069 E.02408
G1 X141.931 Y130.096 E.84421
G1 X141.931 Y130.743 E.02408
G1 X125.258 Y114.069 E.87826
G1 X124.611 Y114.069 E.02408
G1 X141.931 Y131.389 E.91231
G1 X141.931 Y132.036 E.02408
G1 X123.965 Y114.069 E.94636
G1 X123.318 Y114.069 E.02408
G1 X141.931 Y132.682 E.98041
G1 X141.931 Y133.328 E.02408
G1 X122.672 Y114.069 E1.01446
G1 X122.026 Y114.069 E.02408
G1 X141.931 Y133.975 E1.04851
G1 X141.931 Y134.621 E.02408
G1 X121.379 Y114.069 E1.08256
G1 X120.733 Y114.069 E.02408
G1 X141.931 Y135.268 E1.11661
G1 X141.931 Y135.914 E.02408
G1 X120.086 Y114.069 E1.15066
G1 X119.44 Y114.069 E.02408
G1 X141.931 Y136.561 E1.18471
G1 X141.931 Y137.207 E.02408
G1 X118.794 Y114.069 E1.21876
G1 X118.147 Y114.069 E.02408
G1 X141.931 Y137.853 E1.25281
G1 X141.931 Y138.5 E.02408
G1 X117.501 Y114.069 E1.28686
G1 X116.854 Y114.069 E.02408
G1 X141.931 Y139.146 E1.32091
G1 X141.931 Y139.793 E.02408
G1 X116.208 Y114.069 E1.35496
G1 X115.561 Y114.069 E.02408
G1 X141.931 Y140.439 E1.38901
G1 X141.931 Y141.086 E.02408
G1 X114.915 Y114.069 E1.42306
G1 X114.269 Y114.069 E.02408
G1 X141.931 Y141.732 E1.45711
G1 X141.931 Y142.378 E.02408
G1 X113.622 Y114.069 E1.49116
G1 X112.976 Y114.069 E.02408
G1 X141.931 Y143.025 E1.52522
G1 X141.931 Y143.671 E.02408
G1 X112.329 Y114.069 E1.55927
G1 X111.683 Y114.069 E.02408
G1 X141.931 Y144.318 E1.59332
G1 X141.931 Y144.964 E.02408
G1 X111.037 Y114.069 E1.62737
G1 X110.39 Y114.069 E.02408
G1 X141.931 Y145.611 E1.66142
G1 X141.931 Y146.257 E.02408
G1 X109.744 Y114.069 E1.69547
G1 X109.097 Y114.069 E.02408
G1 X141.931 Y146.903 E1.72952
G1 X141.931 Y147.55 E.02408
G1 X108.451 Y114.069 E1.76357
G1 X107.804 Y114.069 E.02408
G1 X141.931 Y148.196 E1.79762
G1 X141.931 Y148.843 E.02408
G1 X107.158 Y114.069 E1.83167
G1 X106.512 Y114.069 E.02408
G1 X141.931 Y149.489 E1.86572
G1 X141.931 Y150.136 E.02408
G1 X105.865 Y114.069 E1.89977
G1 X105.219 Y114.069 E.02408
G1 X141.931 Y150.782 E1.93382
G1 X141.931 Y151.428 E.02408
G1 X104.572 Y114.069 E1.96787
G1 X103.926 Y114.069 E.02408
G1 X141.931 Y152.075 E2.00192
G1 X141.932 Y152.721 E.02408
G1 X103.28 Y114.069 E2.03597
G1 X102.633 Y114.069 E.02408
G1 X141.932 Y153.368 E2.07002
G1 X141.932 Y154.014 E.02408
G1 X101.987 Y114.069 E2.10407
G1 X101.34 Y114.069 E.02408
G1 X141.932 Y154.661 E2.13812
G1 X141.932 Y155.307 E.02408
G1 X100.694 Y114.069 E2.17217
G1 X100.048 Y114.069 E.02408
G1 X141.932 Y155.953 E2.20622
G1 X141.932 Y156.6 E.02408
G1 X99.401 Y114.069 E2.24027
G1 X98.755 Y114.069 E.02408
G1 X141.932 Y157.246 E2.27432
G1 X141.932 Y157.893 E.02408
G1 X98.108 Y114.069 E2.30837
G1 X97.462 Y114.069 E.02408
M73 P1 R83
G1 X141.932 Y158.539 E2.34242
G1 X141.932 Y159.186 E.02408
G1 X96.815 Y114.069 E2.37647
G1 X96.169 Y114.069 E.02408
G1 X141.932 Y159.832 E2.41052
G1 X141.932 Y160.478 E.02408
G1 X95.523 Y114.069 E2.44457
G1 X94.876 Y114.069 E.02408
G1 X141.932 Y161.125 E2.47862
G1 X141.932 Y161.771 E.02408
G1 X94.23 Y114.069 E2.51267
G1 X93.583 Y114.069 E.02408
G1 X141.932 Y162.418 E2.54672
G1 X141.932 Y163.064 E.02408
G1 X92.937 Y114.069 E2.58077
G1 X92.291 Y114.069 E.02408
G1 X141.932 Y163.711 E2.61482
G1 X141.932 Y164.357 E.02408
G1 X91.644 Y114.069 E2.64887
G1 X90.998 Y114.069 E.02408
G1 X141.932 Y165.003 E2.68292
G1 X141.932 Y165.65 E.02408
G1 X90.351 Y114.069 E2.71697
G1 X89.705 Y114.069 E.02408
G1 X141.932 Y166.296 E2.75103
G1 X141.932 Y166.943 E.02408
G1 X89.058 Y114.069 E2.78508
G1 X88.412 Y114.069 E.02408
G1 X141.932 Y167.589 E2.81913
G1 X141.932 Y168.236 E.02408
G1 X87.766 Y114.069 E2.85318
G1 X87.119 Y114.069 E.02408
G1 X141.932 Y168.882 E2.88723
G1 X141.932 Y169.528 E.02408
G1 X86.473 Y114.069 E2.92128
G1 X85.826 Y114.069 E.02408
G1 X141.932 Y170.175 E2.95533
G1 X141.932 Y170.821 E.02408
G1 X85.18 Y114.069 E2.98938
G1 X84.534 Y114.069 E.02408
G1 X141.932 Y171.468 E3.02343
G1 X141.932 Y172.114 E.02408
G1 X83.887 Y114.069 E3.05748
G1 X83.241 Y114.069 E.02408
G1 X141.932 Y172.761 E3.09153
G1 X141.932 Y173.407 E.02408
G1 X82.594 Y114.069 E3.12558
G1 X81.948 Y114.069 E.02408
G1 X141.932 Y174.053 E3.15963
G1 X141.932 Y174.7 E.02408
G1 X81.302 Y114.069 E3.19368
G1 X80.655 Y114.069 E.02408
G1 X141.932 Y175.346 E3.22773
G1 X141.932 Y175.993 E.02408
M73 P1 R82
G1 X80.009 Y114.069 E3.26178
G1 X79.362 Y114.069 E.02408
G1 X141.932 Y176.639 E3.29583
G1 X141.932 Y177.286 E.02408
G1 X78.716 Y114.069 E3.32988
G1 X78.069 Y114.069 E.02408
G1 X141.931 Y177.931 E3.36385
G1 X141.284 Y177.931 E.02408
G1 X78.068 Y114.714 E3.32989
G1 X78.068 Y115.361 E.02408
G1 X140.638 Y177.931 E3.29584
G1 X139.991 Y177.931 E.02408
G1 X78.068 Y116.007 E3.26179
G1 X78.068 Y116.654 E.02408
G1 X139.345 Y177.931 E3.22774
G1 X138.699 Y177.931 E.02408
G1 X78.068 Y117.3 E3.19369
G1 X78.068 Y117.946 E.02408
G1 X138.052 Y177.931 E3.15963
G1 X137.406 Y177.931 E.02408
G1 X78.068 Y118.593 E3.12558
G1 X78.068 Y119.239 E.02408
G1 X136.759 Y177.931 E3.09153
G1 X136.113 Y177.931 E.02408
G1 X78.068 Y119.886 E3.05748
G1 X78.068 Y120.532 E.02408
G1 X135.467 Y177.931 E3.02343
G1 X134.82 Y177.931 E.02408
G1 X78.068 Y121.179 E2.98938
G1 X78.068 Y121.825 E.02408
G1 X134.174 Y177.931 E2.95533
G1 X133.527 Y177.931 E.02408
G1 X78.068 Y122.471 E2.92128
G1 X78.068 Y123.118 E.02408
G1 X132.881 Y177.931 E2.88723
G1 X132.234 Y177.931 E.02408
G1 X78.068 Y123.764 E2.85318
G1 X78.068 Y124.411 E.02408
G1 X131.588 Y177.931 E2.81913
G1 X130.942 Y177.931 E.02408
G1 X78.068 Y125.057 E2.78508
G1 X78.068 Y125.704 E.02408
G1 X130.295 Y177.931 E2.75103
G1 X129.649 Y177.931 E.02408
G1 X78.068 Y126.35 E2.71698
G1 X78.068 Y126.996 E.02408
G1 X129.002 Y177.931 E2.68293
G1 X128.356 Y177.931 E.02408
G1 X78.068 Y127.643 E2.64888
G1 X78.068 Y128.289 E.02408
G1 X127.71 Y177.931 E2.61483
G1 X127.063 Y177.931 E.02408
M73 P2 R82
G1 X78.068 Y128.936 E2.58078
G1 X78.068 Y129.582 E.02408
G1 X126.417 Y177.931 E2.54673
G1 X125.77 Y177.931 E.02408
G1 X78.068 Y130.229 E2.51268
G1 X78.068 Y130.875 E.02408
G1 X125.124 Y177.931 E2.47863
G1 X124.477 Y177.931 E.02408
G1 X78.068 Y131.521 E2.44458
G1 X78.068 Y132.168 E.02408
G1 X123.831 Y177.931 E2.41053
G1 X123.185 Y177.931 E.02408
G1 X78.068 Y132.814 E2.37648
G1 X78.068 Y133.461 E.02408
G1 X122.538 Y177.931 E2.34243
G1 X121.892 Y177.931 E.02408
G1 X78.068 Y134.107 E2.30838
G1 X78.068 Y134.754 E.02408
G1 X121.245 Y177.931 E2.27433
G1 X120.599 Y177.931 E.02408
G1 X78.068 Y135.4 E2.24028
G1 X78.068 Y136.046 E.02408
G1 X119.953 Y177.931 E2.20623
G1 X119.306 Y177.931 E.02408
G1 X78.068 Y136.693 E2.17218
G1 X78.068 Y137.339 E.02408
G1 X118.66 Y177.931 E2.13813
G1 X118.013 Y177.931 E.02408
G1 X78.068 Y137.986 E2.10408
G1 X78.068 Y138.632 E.02408
G1 X117.367 Y177.931 E2.07003
G1 X116.721 Y177.931 E.02408
G1 X78.068 Y139.279 E2.03598
G1 X78.069 Y139.925 E.02408
G1 X116.074 Y177.931 E2.00193
G1 X115.428 Y177.931 E.02408
G1 X78.069 Y140.571 E1.96787
G1 X78.069 Y141.218 E.02408
G1 X114.781 Y177.931 E1.93382
G1 X114.135 Y177.931 E.02408
G1 X78.069 Y141.864 E1.89977
G1 X78.069 Y142.511 E.02408
G1 X113.488 Y177.931 E1.86572
G1 X112.842 Y177.931 E.02408
G1 X78.069 Y143.157 E1.83167
G1 X78.069 Y143.804 E.02408
G1 X112.196 Y177.931 E1.79762
G1 X111.549 Y177.931 E.02408
G1 X78.069 Y144.45 E1.76357
G1 X78.069 Y145.096 E.02408
G1 X110.903 Y177.931 E1.72952
G1 X110.256 Y177.931 E.02408
G1 X78.069 Y145.743 E1.69547
G1 X78.069 Y146.389 E.02408
G1 X109.61 Y177.931 E1.66142
G1 X108.964 Y177.931 E.02408
G1 X78.069 Y147.036 E1.62737
G1 X78.069 Y147.682 E.02408
G1 X108.317 Y177.931 E1.59332
G1 X107.671 Y177.931 E.02408
G1 X78.069 Y148.329 E1.55927
G1 X78.069 Y148.975 E.02408
G1 X107.024 Y177.931 E1.52522
G1 X106.378 Y177.931 E.02408
G1 X78.069 Y149.621 E1.49117
G1 X78.069 Y150.268 E.02408
G1 X105.732 Y177.931 E1.45712
G1 X105.085 Y177.931 E.02408
G1 X78.069 Y150.914 E1.42307
G1 X78.069 Y151.561 E.02408
G1 X104.439 Y177.931 E1.38902
G1 X103.792 Y177.931 E.02408
G1 X78.069 Y152.207 E1.35497
G1 X78.069 Y152.854 E.02408
G1 X103.146 Y177.931 E1.32092
G1 X102.499 Y177.931 E.02408
G1 X78.069 Y153.5 E1.28687
G1 X78.069 Y154.146 E.02408
G1 X101.853 Y177.931 E1.25282
G1 X101.207 Y177.931 E.02408
G1 X78.069 Y154.793 E1.21877
G1 X78.069 Y155.439 E.02408
G1 X100.56 Y177.931 E1.18472
G1 X99.914 Y177.931 E.02408
G1 X78.069 Y156.086 E1.15067
G1 X78.069 Y156.732 E.02408
G1 X99.267 Y177.931 E1.11662
G1 X98.621 Y177.931 E.02408
G1 X78.069 Y157.379 E1.08257
G1 X78.069 Y158.025 E.02408
G1 X97.975 Y177.931 E1.04852
G1 X97.328 Y177.931 E.02408
G1 X78.069 Y158.671 E1.01447
G1 X78.069 Y159.318 E.02408
G1 X96.682 Y177.931 E.98042
G1 X96.035 Y177.931 E.02408
G1 X78.069 Y159.964 E.94637
G1 X78.069 Y160.611 E.02408
G1 X95.389 Y177.931 E.91232
G1 X94.742 Y177.931 E.02408
M73 P2 R81
G1 X78.069 Y161.257 E.87827
G1 X78.069 Y161.904 E.02408
G1 X94.096 Y177.931 E.84422
G1 X93.45 Y177.931 E.02408
G1 X78.069 Y162.55 E.81017
G1 X78.069 Y163.196 E.02408
G1 X92.803 Y177.931 E.77612
G1 X92.157 Y177.931 E.02408
G1 X78.069 Y163.843 E.74206
G1 X78.069 Y164.489 E.02408
G1 X91.51 Y177.931 E.70801
G1 X90.864 Y177.931 E.02408
G1 X78.069 Y165.136 E.67396
G1 X78.069 Y165.782 E.02408
G1 X90.218 Y177.931 E.63991
G1 X89.571 Y177.931 E.02408
G1 X78.069 Y166.429 E.60586
G1 X78.069 Y167.075 E.02408
G1 X88.925 Y177.931 E.57181
G1 X88.278 Y177.931 E.02408
G1 X78.069 Y167.721 E.53776
G1 X78.069 Y168.368 E.02408
G1 X87.632 Y177.931 E.50371
G1 X86.986 Y177.931 E.02408
G1 X78.069 Y169.014 E.46966
G1 X78.069 Y169.661 E.02408
G1 X86.339 Y177.931 E.43561
G1 X85.693 Y177.931 E.02408
G1 X78.069 Y170.307 E.40156
G1 X78.069 Y170.954 E.02408
G1 X85.046 Y177.931 E.36751
G1 X84.4 Y177.931 E.02408
G1 X78.069 Y171.6 E.33346
G1 X78.069 Y172.246 E.02408
G1 X83.753 Y177.931 E.29941
G1 X83.107 Y177.931 E.02408
G1 X78.069 Y172.893 E.26536
G1 X78.069 Y173.539 E.02408
G1 X82.461 Y177.931 E.23131
G1 X81.814 Y177.931 E.02408
G1 X78.069 Y174.186 E.19726
G1 X78.069 Y174.832 E.02408
G1 X81.168 Y177.931 E.16321
G1 X80.521 Y177.931 E.02408
G1 X78.069 Y175.479 E.12916
G1 X78.069 Y176.125 E.02408
G1 X79.875 Y177.931 E.09511
G1 X79.229 Y177.931 E.02408
G1 X78.069 Y176.771 E.06106
G1 X78.069 Y177.418 E.02408
G1 X78.788 Y178.136 E.03784
;WIPE_START
G1 X78.069 Y177.418 E-.30481
G1 X78.069 Y176.771 E-.19393
G1 X78.308 Y177.01 E-.10127
;WIPE_END
EXCLUDE_OBJECT_END NAME=Top.stl_id_0_copy_0
EXCLUDE_OBJECT_START NAME=Base.stl_id_1_copy_0
G1 Z.4 F30000
G1 X142.273 Y106.273 Z.4
G1 Z.2
G1 E.6 F2400
;TYPE:Inner wall
;WIDTH:0.499999
G1 F3600
G1 X77.727 Y106.273 E2.40412
G1 X77.725 Y41.727 E2.40412
G1 X142.273 Y41.727 E2.40418
G1 X142.273 Y106.233 E2.40263
G1 X142.73 Y106.73 F30000
G1 F3600
G1 X77.27 Y106.73 E2.43817
G1 X77.268 Y41.27 E2.43817
G1 X142.73 Y41.27 E2.43823
G1 X142.73 Y106.69 E2.43668
M73 P3 R81
